X:61
T: ES ZOGEN DREI REITER WOL UEBER DEN RHEIN
N: E0042G
O: Europa, Mitteleuropa, Deutschland, Wetzlar, Atzbach
R: erzaehlendes Volks - Lied, Ritter -, Raeuber - Sage
M: 6/8
L: 1/16
K: G
D2 | D3EF2G2A2B2 | A3GFED4
DF | A3GA2d4d2 | B4AFG4
GB | d3Bd2e3de2 | d4B2G4
Bd | g3dB2d3cB2 | A6G4
GB | d3Bd2e3de2 | d4B2G4
Bd | g3dB2d3cB2 | A6G4

@@@ Tune index: 3711
